svgs/sharp-light/pen-to-square.svg

<svg xmlns="http://www.w3.org/2000/svg" viewBox="0 0 512 512"><!--! Font Awesome Pro 6.6.0 by @fontawesome - https://fontawesome.com License - https://fontawesome.com/license (Commercial License) Copyright 2024 Fonticons, Inc. --><path d="M128 384l6.3-33.7L152 256 385.4 22.6 408 0l22.6 22.6 58.7 58.7L512 104l-22.6 22.6L256 360l-94.3 17.7L128 384zm112.4-53.6L410.1 160.7l-58.7-58.7L181.6 271.6l-13.6 72.3 72.3-13.6zM432.7 138.1L466.7 104 408 45.3 373.9 79.3l58.7 58.7zM0 64l16 0 192 0 16 0 0 32-16 0L32 96l0 384 384 0 0-176 0-16 32 0 0 16 0 192 0 16-16 0L16 512 0 512l0-16L0 80 0 64z"/></svg>

<svg xmlns="http://www.w3.org/2000/svg" viewBox="0 0 512 512"><!--! Font Awesome Pro 6.4.2 by @fontawesome - https://fontawesome.com License - https://fontawesome.com/license (Commercial License) Copyright 2023 Fonticons, Inc. --><path d="M128 384l6.3-33.7L152 256 385.4 22.6 408 0l22.6 22.6 58.7 58.7L512 104l-22.6 22.6L256 360l-94.3 17.7L128 384zm112.4-53.6L410.1 160.7l-58.7-58.7L181.6 271.6l-13.6 72.3 72.3-13.6zM432.7 138.1L466.7 104 408 45.3 373.9 79.3l58.7 58.7zM0 64H16 208h16V96H208 32V480H416V304 288h32v16V496v16H432 16 0V496 80 64z"/></svg>
